tenants/donaldduck/icons/check.svg

<svg fill="none" height="24" viewBox="0 0 24 24" width="24" xmlns="http://www.w3.org/2000/svg"><path d="m9.30797 19.9998c-.171 0-.34-.039-.497-.112-.158-.0744-.29869-.181-.413-.313l-6.06-6.868c-.22882-.2636-.34924-.6042-.337-.953.00859-.3477.14909-.6791.393-.927.241-.242.563-.37.894-.36.33.012.644.162.87.42l5.137 5.832 10.48603-12.22201c.106-.142.239-.258.389-.343.1486-.08361.3135-.13429.4834-.14861.17-.01432.341.00806.5016.06561.161.058.309.151.435.273.126.121.227.269.298.434.1429.3348.15.71202.02 1.052-.065.168-.16.32-.282.447l-11.396 13.28501c-.1134.1343-.2538.2434-.41203.32-.15541.0752-.32538.1154-.498.118z" fill="#000"/></svg>

<svg width="24" height="24" viewBox="0 0 24 24" fill="none" xmlns="http://www.w3.org/2000/svg">
<path d="M9.30797 19.9998C9.13697 19.9998 8.96797 19.9608 8.81097 19.8878C8.65297 19.8134 8.51228 19.7068 8.39797 19.5748L2.33797 12.7068C2.10915 12.4432 1.98873 12.1026 2.00097 11.7538C2.00956 11.4061 2.15006 11.0747 2.39397 10.8268C2.63497 10.5848 2.95697 10.4568 3.28797 10.4668C3.61797 10.4788 3.93197 10.6288 4.15797 10.8868L9.29497 16.7188L19.781 4.49679C19.887 4.35479 20.02 4.23879 20.17 4.15379C20.3186 4.07018 20.4835 4.0195 20.6534 4.00518C20.8234 3.99086 20.9944 4.01324 21.155 4.07079C21.316 4.12879 21.464 4.22179 21.59 4.34379C21.716 4.46479 21.817 4.61279 21.888 4.77779C22.0309 5.11259 22.038 5.48981 21.908 5.82979C21.843 5.99779 21.748 6.14979 21.626 6.27679L10.23 19.5618C10.1166 19.6961 9.9762 19.8052 9.81797 19.8818C9.66256 19.957 9.49259 19.9972 9.31997 19.9998H9.30797Z" fill="black"/>
</svg>
